public/premiumjob.svg

<svg version="1.1" xmlns="http://www.w3.org/2000/svg" xmlns:xlink="http://www.w3.org/1999/xlink" width="122.88px" height="96.04px" viewBox="0,0,256,200.075"><g fill="#ffffff" fill-rule="evenodd" stroke="none" stroke-width="1" stroke-linecap="butt" stroke-linejoin="miter" stroke-miterlimit="10" stroke-dasharray="" stroke-dashoffset="0" font-family="none" font-weight="none" font-size="none" text-anchor="none" style="mix-blend-mode: normal"><g transform="translate(0,-0.00417) scale(2.08333,2.08333)"><g><path d="M59.07,96.03l-57.92,-66.26h38.01l19.91,66.26v0zM61.18,0.11l-15.29,25.13h31.71l-16.42,-25.13zM82.18,25.07l-17.01,-25.07h31.45l-14.44,25.07zM41.65,25.31l14.9,-25.31h-31.94l17.04,25.31zM101.71,2.98l-15.04,22.26h36.21l-21.17,-22.26zM22.26,2.98l15.81,22.26h-38.07l22.26,-22.26v0zM44.73,29.57h33.63l-16.32,65.47l-17.31,-65.47v0zM64.91,96.04l57.23,-66.27h-38.01l-19.22,66.27v0z"></path></g></g></g></svg>

<svg xmlns="http://www.w3.org/2000/svg" width="122.88" height="96.04" viewBox="0 0 256 200.075"><path fill="#fff" fill-rule="evenodd" stroke-miterlimit="10" d="M59.07 96.03 1.15 29.77h38.01l19.91 66.26zM61.18.11 45.89 25.24H77.6L61.18.11zm21 24.96L65.17 0h31.45L82.18 25.07zm-40.53.24L56.55 0H24.61l17.04 25.31zm60.06-22.33L86.67 25.24h36.21L101.71 2.98zm-79.45 0 15.81 22.26H0L22.26 2.98zm22.47 26.59h33.63L62.04 95.04 44.73 29.57zm20.18 66.47 57.23-66.27H84.13L64.91 96.04z" font-family="none" font-size="none" font-weight="none" style="mix-blend-mode:normal" text-anchor="none" transform="translate(0 -.004) scale(2.08333)"/></svg>
